app/dist/common/images/k-s-ag.svg

<svg height="18" viewBox="0 0 18 18" width="18" xmlns="http://www.w3.org/2000/svg"><path d="m0 0h18v18h-18z" fill="#f0f3fa"/><path d="m16 6h-12.25l-1.75 6h12.48z" fill="#173b7a"/><path d="m14.94 8.23c.32-1.05-.76-1.23-1.66-1.23-1.28 0-2.18.31-2.56 1.31-.04.12-.07.26-.08.36h-1.12l.68-1.67h-.68l-.68 1.67h-2.24l2.25-1.67h-1.8l-1.81 1.44.49-1.44h-1.33l-1.4 4h1.33l.36-1.11.67-.44.44 1.55h1.65l-.65-1.67h1.78l-.61 1.67h.67l.6-1.67h2.27l1.13.17c.31.04.42.1.35.3-.1.26-.43.32-.73.32s-.46-.04-.55-.11c-.1-.07-.1-.18-.07-.31h-1.55c-.39 1.11.82 1.3 1.76 1.3 1.41 0 2.33-.4 2.66-1.28.27-.73-.07-1.03-.95-1.14l-1.1-.14c-.32-.04-.37-.14-.33-.26.1-.25.36-.35.74-.35.17 0 .34.03.45.09.1.05.17.26.12.41h1.48z" fill="#fefefe"/></svg>

<!-- by TradingView --><svg width="18" height="18" viewBox="0 0 18 18" xmlns="http://www.w3.org/2000/svg"><path fill="#F0F3FA" d="M0 0h18v18H0z"/><path d="M16 6H3.75L2 12h12.48L16 6Z" fill="#173B7A"/><path d="M14.94 8.23C15.26 7.18 14.18 7 13.28 7c-1.28 0-2.18.31-2.56 1.31-.04.12-.07.26-.08.36H9.52L10.2 7h-.68l-.68 1.67H6.6L8.85 7h-1.8L5.24 8.44 5.73 7H4.4L3 11h1.33l.36-1.11.67-.44L5.8 11h1.65L6.8 9.33h1.78L7.97 11h.67l.6-1.67h2.27l1.13.17c.31.04.42.1.35.3-.1.26-.43.32-.73.32s-.46-.04-.55-.11c-.1-.07-.1-.18-.07-.31h-1.55c-.39 1.11.82 1.3 1.76 1.3 1.41 0 2.33-.4 2.66-1.28.27-.73-.07-1.03-.95-1.14l-1.1-.14c-.32-.04-.37-.14-.33-.26.1-.25.36-.35.74-.35.17 0 .34.03.45.09.1.05.17.26.12.41h1.48l.02-.1Z" fill="#FEFEFE"/></svg>
